X:1
T:Sarah Smith's Jig
C:Bob McQuillen
M:6/8
L:1/8
R:Jig
K:G
DGB AGe |\dBG A2 G |\ged Beg |\dBG A2 E |\
DGB AGe |\dBd ega |\bge dBA |\BGG G2 z |:
